human-female.svg

<svg fill="currentColor" viewBox="0 0 24 24"><path d="M12 2a2 2 0 0 1 2 2 2 2 0 0 1-2 2 2 2 0 0 1-2-2 2 2 0 0 1 2-2m-1.5 20v-6h-3l2.59-7.59C10.34 7.59 11.1 7 12 7s1.66.59 1.91 1.41L16.5 16h-3v6z"/></svg>

<svg  viewBox="0 0 24 24" fill="currentColor"><path  d="M12,2A2,2 0 0,1 14,4A2,2 0 0,1 12,6A2,2 0 0,1 10,4A2,2 0 0,1 12,2M10.5,22V16H7.5L10.09,8.41C10.34,7.59 11.1,7 12,7C12.9,7 13.66,7.59 13.91,8.41L16.5,16H13.5V22H10.5Z"/></svg>
